X:1
T:Title
%%score { ( 1 4 ) | ( 2 3 ) }
L:1/8
M:3/4
K:Eb
V:1 treble nm="Grand Piano"
V:4 treble 
V:2 bass 
V:3 bass 
V:1
 z2 z2[Q:1/4=100] E>F | G3 F E>G | [GB]4 [GB]>[Ac] | [GB]3 G E>G |[M:2/4] [EG] [DF]3 |[M:1/4] E>F | %6
[M:3/4] G3 F E>G | [GB]4 c>c | B3 E [DG]>[DF] |[M:2/4] F E3 |[M:1/4] B>B | %11
[M:3/4] [Ge]3 [Fd] [Ac]>[GB] | [Fd]4 [Fd]>[Ge] | d3 c B>=A |[M:2/4] [DB]3 A | %15
[M:1/4] [B,EG]>[B,FA] |[M:3/4] [B,GB]3 [B,EG] [A,EA]>[EB] | [Ec]4 [CAe]>[EAc] | %18
 [EGB]3 [G,E] [B,DG]>[A,B,F] |[M:2/4] [A,B,F] [G,B,E]3 |[M:1/4] (3GAB |[M:3/4] c6 | %22
 [EAc] [EGB]3 F>G | A6 |[M:2/4] [B,FA] [B,EG]3 |[M:1/4] [B,EG]>[B,FA] | %26
[M:3/4] [B,GB]3 [B,EG] [A,EA]>[EB] | [Ec]4 [CAe]>[EAc] | [EGB]3 [G,E] [B,DG]>[A,B,F] | %29
[M:6/4] [A,B,F] [G,B,E]3 z2 z6 |] %30
V:2
 z2 z2 [E,G,B,]>[E,A,B,] | [E,B,E]3 [E,A,E] [E,G,]>[E,B,E] | [E,E]4 [E,E]>[E,E] | %3
 [E,E]3 [E,B,E] [G,B,]>[E,B,E] |[M:2/4] [B,,B,] [B,,B,]3 |[M:1/4] [E,G,]>[E,A,E] | %6
[M:3/4] [E,B,E]3 [E,A,E] [E,G,]>[E,B,E] | [E,E]4[K:treble] [A,EA]>[A,E] | %8
 [G,E]3 [E,G,] [B,,B,]>[B,,A,] |[M:2/4] [E,A,B,] [E,G,B,]3 |[M:1/4] [E,G,E]>[E,G,E] | %11
[M:3/4] [E,B,]3 [E,B,] [E,E]>[E,B,] | [B,,B,]4 [B,,B,]>[E,B,] | [F,B,F]3 [F,EF] [F,DF]>[F,CE] | %14
[M:2/4] z2 z F |[M:1/4] E,>E, |[M:3/4] E,3 _D, C,>[B,,G,] | [A,,A,]4 A,,>A,, | B,,3 B,, B,,>B,, | %19
[M:2/4] E, E,3 |[M:1/4][K:treble] (3EFG |[M:3/4] A6[K:bass] | E, E,3[K:treble] D>E | F6[K:bass] | %24
[M:2/4] E, E,3 |[M:1/4] E,>E, |[M:3/4] E,3 _D, C,>[B,,G,] | [A,,A,]4 A,,>A,, | B,,3 B,, B,,>B,, | %29
[M:6/4] E, E,3 z2 z6 |] %30
V:3
 x6 | x6 | x6 | x6 |[M:2/4] x4 |[M:1/4] x2 |[M:3/4] x6 | x4[K:treble] x2 | x6 |[M:2/4] x4 | %10
[M:1/4] x2 |[M:3/4] x6 | x6 | x6 |[M:2/4] [B,,B,]4 |[M:1/4] x2 |[M:3/4] x6 | x6 | x6 |[M:2/4] x4 | %20
[M:1/4][K:treble] x2 |[M:3/4] z2[K:bass] A,,>B,, C,D, | x4[K:treble] x2 | z2[K:bass] B,,>C, D,B,, | %24
[M:2/4] x4 |[M:1/4] x2 |[M:3/4] x6 | x6 | x6 |[M:6/4] x12 |] %30
V:4
 x6 | x6 | x6 | x6 |[M:2/4] x4 |[M:1/4] x2 |[M:3/4] x6 | x6 | x6 |[M:2/4] x4 |[M:1/4] x2 | %11
[M:3/4] x6 | x6 | x6 |[M:2/4] x4 |[M:1/4] x2 |[M:3/4] x6 | x6 | x6 |[M:2/4] x4 |[M:1/4] x2 | %21
[M:3/4] z2 C>B, E[EAc] | x6 | z2 D>C B,[B,FA] |[M:2/4] x4 |[M:1/4] x2 |[M:3/4] x6 | x6 | x6 | %29
[M:6/4] x12 |] %30

